X:19
T:Oswestry Wake
T:John Malchairs Third Collection of Tunes
%%VWML:Malchair-3619-p19
F:https://www.vwml.org/record/Malchair/3619/p19
F:www.vwml.org/topics/historic-dance-and-tune-books/Malchair
Z:Peter Dunk Jan 2020
M:6/4
L:1/4
K:G
d|efg f2e|dcB A2G|gfe f2g|a3-a2 d|
efg f2e|dcB ABc|BGB AFA|G3-G2||
A|B3/c/ dded|dBGdBG|A3/B/ A c2 d|e3 edc|
Bcddef|g3d3|BGE AFD|G3-G2||
e/f/|gdB gdB|gdB A2G|gfe f2g|a3-a2d|
gba bfe|fag fed|egBA2G|G3-G2||
W:
T:Wallpool or the happy Clown
T:John Malchairs Third Collection of Tunes
F:https://www.vwml.org/record/Malchair/3619/p19
F:www.vwml.org/topics/historic-dance-and-tune-books/Malchair
Z:Peter Dunk Jan 2020
M:6/4
L:1/4
K:G
d|G2 ABAG|d2d d2g|f2 edec|B2A G2d|
G2 ABAG|d2d d2g|fge e2d|d3-d2||
d|dBc ded|dcB c2c|cAB cdc|cBA B2d|
g2d g2d|g3-g3/ f/e|dcB A2G|G3-G2|]

